dist/svg/u1F3D8.svg

<?xml version="1.0" encoding="UTF-8"?><svg id="Layer_1" xmlns="http://www.w3.org/2000/svg" viewBox="0 0 40 40"><g id="_0x20"><rect y="0" width="40" height="40" style="fill:none;"/></g><g><path d="M28.53889,10.3269l-7.95296-6.32435c-.34305-.2728-.82898-.2728-1.17203,0l-7.95296,6.32435c-.44924,.35725-.71102,.89988-.71102,1.47385v21.07501c0,1.24798,1.01169,2.25967,2.25967,2.25967h13.98067c1.24798,0,2.25967-1.01169,2.25967-2.25967V11.80075c0-.57397-.26178-1.1166-.71102-1.47385Z" style="fill:#8a94a0;"/><path d="M28.53846,10.32632l-7.95278-6.32361c-.34302-.27275-.82886-.27274-1.17187,.00002l-7.95308,6.32422c-.44921,.35721-.71097,.89979-.71097,1.47371v2.85768l8.66421-6.88969c.34306-.27279,.82897-.27279,1.17202,.00001l8.66376,6.88967v-2.85768c0-.57417-.26188-1.11699-.7113-1.47434Z" style="fill:#6b7683;"/><g><path d="M9.54024,30.66042h2.41964c.5672,0,1.02769,.46049,1.02769,1.02769v3.44733h-4.47501v-3.44733c0-.5672,.46049-1.02769,1.02769-1.02769Z" style="fill:#6b7683;"/><path d="M19.28896,22.5346l-7.95296-6.32435c-.34305-.2728-.82898-.2728-1.17203,0l-7.95296,6.32435c-.44924,.35725-.71102,.89988-.71102,1.47385v8.86731c0,1.24798,1.01169,2.25967,2.25967,2.25967h5.10751v-3.53349c0-.51999,.42154-.94153,.94153-.94153h1.88305c.51999,0,.94153,.42154,.94153,.94153v3.53349h7.36672v-11.12698c0-.57397-.26178-1.1166-.71102-1.47385Z" style="fill:#d0d5da;"/><path d="M19.28854,22.53402l-7.95278-6.32361c-.34302-.27275-.82886-.27274-1.17187,.00002l-7.95308,6.32422c-.44921,.35721-.71097,.89979-.71097,1.47371v2.85768l8.66421-6.88969c.34306-.27279,.82897-.27279,1.17202,.00001l8.66376,6.88967v-2.85768c0-.57417-.26188-1.11699-.7113-1.47434Z" style="fill:#007ff2;"/></g><g><path d="M28.0401,30.66042h2.41964c.5672,0,1.02769,.46049,1.02769,1.02769v3.44733h-4.47501v-3.44733c0-.5672,.46049-1.02769,1.02769-1.02769Z" style="fill:#6b7683;"/><path d="M37.78881,17.82696l-7.95296-6.32435c-.34305-.2728-.82898-.2728-1.17203,0l-7.95296,6.32435c-.44924,.35725-.71102,.89988-.71102,1.47385v15.83462h7.36718v-3.53349c0-.51999,.42154-.94153,.94153-.94153h1.88305c.51999,0,.94153,.42154,.94153,.94153v3.53349h5.10705c1.24798,0,2.25967-1.01169,2.25967-2.25967v-13.57495c0-.57397-.26178-1.1166-.71102-1.47385Z" style="fill:#afb7c0;"/><path d="M37.78839,17.82638l-7.95278-6.32361c-.34302-.27275-.82886-.27274-1.17187,.00002l-7.95308,6.32422c-.44921,.35721-.71097,.89979-.71097,1.47371v2.85768l8.66421-6.88969c.34306-.27279,.82897-.27279,1.17202,.00001l8.66376,6.88967v-2.85768c0-.57417-.26188-1.11699-.7113-1.47434Z" style="fill:#ef4452;"/></g></g></svg>

<svg id="Layer_1" data-name="Layer 1" xmlns="http://www.w3.org/2000/svg" viewBox="0 0 40 40"><defs><style>.cls-1{fill:none;}.cls-2{fill:#8a94a0;}.cls-3{fill:#6b7683;}.cls-4{fill:#d0d5da;}.cls-5{fill:#007ff2;}.cls-6{fill:#afb7c0;}.cls-7{fill:#ef4452;}</style></defs><rect id="_20x20" data-name="20x20" class="cls-1" width="40" height="40"/><path class="cls-2" d="M28.539,10.327,20.586,4a.941.941,0,0,0-1.172,0l-7.953,6.324A1.884,1.884,0,0,0,10.75,11.8V32.876a2.259,2.259,0,0,0,2.26,2.259H26.99a2.259,2.259,0,0,0,2.26-2.259V11.8A1.884,1.884,0,0,0,28.539,10.327Z"/><path class="cls-3" d="M28.538,10.326,20.586,4a.941.941,0,0,0-1.172,0l-7.953,6.324A1.884,1.884,0,0,0,10.75,11.8v2.857l8.664-6.889a.941.941,0,0,1,1.172,0l8.664,6.889V11.8A1.884,1.884,0,0,0,28.538,10.326Z"/><path class="cls-3" d="M9.54,30.66h2.42a1.028,1.028,0,0,1,1.028,1.028v3.447a0,0,0,0,1,0,0H8.513a0,0,0,0,1,0,0V31.688A1.028,1.028,0,0,1,9.54,30.66Z"/><path class="cls-4" d="M19.289,22.535,11.336,16.21a.941.941,0,0,0-1.172,0L2.211,22.535A1.882,1.882,0,0,0,1.5,24.008v8.868a2.259,2.259,0,0,0,2.26,2.259H8.867V31.6a.942.942,0,0,1,.942-.942h1.883a.941.941,0,0,1,.941.942v3.533H20V24.008A1.882,1.882,0,0,0,19.289,22.535Z"/><path class="cls-5" d="M19.289,22.534,11.336,16.21a.944.944,0,0,0-1.172,0L2.211,22.535A1.882,1.882,0,0,0,1.5,24.008v2.858l8.664-6.89a.944.944,0,0,1,1.172,0L20,26.866V24.008A1.884,1.884,0,0,0,19.289,22.534Z"/><path class="cls-3" d="M28.04,30.66h2.42a1.028,1.028,0,0,1,1.028,1.028v3.447a0,0,0,0,1,0,0H27.012a0,0,0,0,1,0,0V31.688A1.028,1.028,0,0,1,28.04,30.66Z"/><path class="cls-6" d="M37.789,17.827,29.836,11.5a.941.941,0,0,0-1.172,0l-7.953,6.324A1.884,1.884,0,0,0,20,19.3V35.135h7.367V31.6a.942.942,0,0,1,.942-.942h1.883a.941.941,0,0,1,.941.942v3.533H36.24a2.259,2.259,0,0,0,2.26-2.259V19.3A1.884,1.884,0,0,0,37.789,17.827Z"/><path class="cls-7" d="M37.788,17.826,29.836,11.5a.941.941,0,0,0-1.172,0l-7.953,6.324A1.881,1.881,0,0,0,20,19.3v2.857l8.664-6.889a.941.941,0,0,1,1.172,0L38.5,22.158V19.3A1.885,1.885,0,0,0,37.788,17.826Z"/></svg>
